X:99
T:Hunter's House
M:C
L:1/8
K:G Major
BddB cAFA|G2BG AGEG|BddB cAFA|GBAG FDCA,|!
DGBG cGBG|cBAF GABc|defg agfd|cAFA G4:|!
B2gB aBgB|B2gf edcB|A2aA bAaA|A2af gfed|!
B2gB aBgB|B2gf edcB|[1 cBAg fdBd|cAFA GBdc:|[2 cBAg fgaf|gdBd cAFA|]!
